!! 00000] TT[WS
!!!OTL: Wuyue sanhua
!!!ARE: Asia, China,ÿShanxi Hequ
!! Ethnic Group: Han
!! WI, 168
!!!SCT: J0203
!!!YEM: Copyright 1995, estate of Helmut Schaffrath.
**kern
*ICvox
*Ivox
*M2/4
*k[f#]
*G:
{8dd
8ee
4gg
=1
8gg
8ee
4dd
=2
8ee
16ee
16gg
8dd
8b
=3
8a
16b
16dd
4a}
=4
{8dd
8ee
4gg
=5
8gg
8ee
4dd
=6
8.dd
16ee
8dd
8b
=7
8a
8b
4a}
=8
{8dd
8b
4dd
=9
16g
16a
16b
16dd
4a
=10
8dd
8b
8dd
8dd
=11
8g
8b
8a
8b
=12
2g}
=13
{8.dd
16gg
8ee
8dd
=14
8b
8b
8b
8b
=15
8.a
16b
4dd
=16
8ee
8e
4g
=17
8a
16a
16b
8g
8e
=18
2d}
=19
{8g
8g
8e
8d
=20
8g
8g
8e
8d
=21
8.a
16b
4dd
=22
8ee
8dd
4g
=23
16a
16a
8b
8g
16g
16e
=24
2d}
=25
{8.dd
16gg
16ee
16gg
16ee
16dd
=26
8gg
8b
4dd
=27
8.a
16dd
16b
16dd
16b
16a
=28
8dd
8e
4g}
=29
{8a
8b
8a
8b
=30
8ee
8e
4g
=31
16a
16a
8b
8g
16g
16e
=32
2d}
==
!!!AGN: Xiaodiao, Duihua. Qingge
!!!ONB: ESAC (Essen Associative Code) Database: CHINA
!!!AMT: simple duple
!!!AIN: vox
!!!EED: Helmut Schaffrath
!!!EEV: 1.0
*-
